svg/u2663.svg

<svg viewBox="0 0 2600 2760.837" xmlns="http://www.w3.org/2000/svg"><path d="M2117.5 1945q-137.5 138-331.5 138-104 0-194.5-42.5t-154.5-114.5q21 103 50 187.5t56 140.5l15 32q2 4 3.5 9t1.5 10q0 17-11.5 27.5t-28.5 10.5h-448q-14 0-26.5-10.5t-12.5-27.5q0-13 18-46t50.5-124 58.5-209q-65 72-155 114.5t-196 42.5q-192 0-329.5-138t-137.5-330 138.5-330 328.5-138q34 0 66 6-22-47-34.5-97.5t-12.5-105.5q0-191 138-329.5t331-138.5q191 0 329 137.5t138 330.5q0 108-46 203 33-6 65-6 192 0 330.5 138t138.5 330-137.5 330z"/></svg>

<svg viewBox="0 0 2600 2760.837" xmlns="http://www.w3.org/2000/svg"><path d="M2117.5 1945Q1980 2083 1786 2083q-104 0-194.5-42.5T1437 1926q21 103 50 187.5t56 140.5l15 32q2 4 3.5 9t1.5 10q0 17-11.5 27.5T1523 2343h-448q-14 0-26.5-10.5T1036 2305q0-13 18-46t50.5-124 58.5-209q-65 72-155 114.5T812 2083q-192 0-329.5-138T345 1615t138.5-330T812 1147q34 0 66 6-22-47-34.5-97.5T831 950q0-191 138-329.5T1300 482q191 0 329 137.5T1767 950q0 108-46 203 33-6 65-6 192 0 330.5 138t138.5 330-137.5 330z"/></svg>
